images/qr-code/gogle.svg

<svg width="147" height="44" viewBox="0 0 147 44" fill="none" xmlns="http://www.w3.org/2000/svg">
<rect x="0.5" y="0.352051" width="146" height="43.296" rx="8" fill="black"/>
<path d="M26.356 21.2839L15.709 32.5839C15.71 32.5859 15.71 32.5879 15.711 32.5899C16.037 33.8179 17.158 34.7209 18.488 34.7209C19.02 34.7209 19.519 34.5769 19.947 34.3249L19.981 34.3049L31.965 27.3899L26.356 21.2839Z" fill="#EB4335"/>
<path d="M37.1273 19.3605L37.1173 19.3535L31.9433 16.3535L26.1143 21.5405L31.9633 27.3885L37.1103 24.4195C38.0123 23.9325 38.6243 22.9815 38.6243 21.8845C38.6243 20.7955 38.0203 19.8485 37.1273 19.3605Z" fill="#FABC13"/>
<path d="M15.7093 11.1367C15.6453 11.3727 15.6113 11.6197 15.6113 11.8767V31.8437C15.6113 32.1007 15.6443 32.3487 15.7093 32.5837L26.7223 21.5727L15.7093 11.1367Z" fill="#547DBF"/>
<path d="M26.434 21.86L31.945 16.351L19.974 9.411C19.539 9.15 19.032 9 18.488 9C17.158 9 16.036 9.905 15.709 11.134V11.137L26.434 21.86Z" fill="#30A851"/>
<path d="M52.6363 11.2771H49.7283V11.9981H51.9073C51.8483 12.5841 51.6133 13.0451 51.2203 13.3801C50.8263 13.7151 50.3233 13.8831 49.7283 13.8831C49.0743 13.8831 48.5213 13.6571 48.0693 13.2041C47.6253 12.7431 47.3983 12.1741 47.3983 11.4861C47.3983 10.7991 47.6253 10.2291 48.0693 9.76805C48.5213 9.31605 49.0743 9.09005 49.7283 9.09005C50.0633 9.09005 50.3823 9.14805 50.6753 9.27405C50.9683 9.40005 51.2033 9.57605 51.3873 9.80205L51.9403 9.24905C51.6893 8.96405 51.3703 8.74605 50.9773 8.58705C50.5833 8.42805 50.1723 8.35205 49.7283 8.35205C48.8563 8.35205 48.1193 8.65405 47.5163 9.25705C46.9123 9.86105 46.6113 10.6061 46.6113 11.4861C46.6113 12.3661 46.9123 13.1121 47.5163 13.7151C48.1193 14.3191 48.8563 14.6201 49.7283 14.6201C50.6413 14.6201 51.3703 14.3271 51.9323 13.7321C52.4263 13.2381 52.6783 12.5671 52.6783 11.7291C52.6783 11.5871 52.6613 11.4361 52.6363 11.2771Z" fill="white"/>
<path d="M53.7844 8.48605V14.4861H57.2874V13.7491H54.5554V11.8471H57.0184V11.1261H54.5554V9.22405H57.2874V8.48605H53.7844Z" fill="white"/>
<path d="M62.2133 9.22405V8.48605H58.0903V9.22405H59.7663V14.4861H60.5373V9.22405H62.2133Z" fill="white"/>
<path d="M65.9683 8.48605H65.1973V14.4861H65.9683V8.48605Z" fill="white"/>
<path d="M71.0633 9.22405V8.48605H66.9403V9.22405H68.6163V14.4861H69.3873V9.22405H71.0633Z" fill="white"/>
<path d="M78.8653 9.26605C78.2703 8.65405 77.5413 8.35205 76.6693 8.35205C75.7983 8.35205 75.0683 8.65405 74.4733 9.25705C73.8783 9.85205 73.5853 10.5981 73.5853 11.4861C73.5853 12.3751 73.8783 13.1201 74.4733 13.7151C75.0683 14.3191 75.7983 14.6201 76.6693 14.6201C77.5323 14.6201 78.2703 14.3191 78.8653 13.7151C79.4603 13.1201 79.7533 12.3751 79.7533 11.4861C79.7533 10.6061 79.4603 9.86105 78.8653 9.26605ZM75.0273 9.76805C75.4713 9.31605 76.0153 9.09005 76.6693 9.09005C77.3233 9.09005 77.8673 9.31605 78.3033 9.76805C78.7473 10.2131 78.9653 10.7911 78.9653 11.4861C78.9653 12.1821 78.7473 12.7601 78.3033 13.2041C77.8673 13.6571 77.3233 13.8831 76.6693 13.8831C76.0153 13.8831 75.4713 13.6571 75.0273 13.2041C74.5913 12.7521 74.3733 12.1821 74.3733 11.4861C74.3733 10.7911 74.5913 10.2211 75.0273 9.76805Z" fill="white"/>
<path d="M81.6053 10.7491L81.5723 9.59205H81.6053L84.6563 14.4861H85.4603V8.48605H84.6893V11.9981L84.7233 13.1541H84.6893L81.7733 8.48605H80.8353V14.4861H81.6053V10.7491Z" fill="white"/>
<path d="M73.7053 23.3251C71.3533 23.3251 69.4363 25.1131 69.4363 27.5781C69.4363 30.0271 71.3533 31.8311 73.7053 31.8311C76.0573 31.8311 77.9743 30.0271 77.9743 27.5781C77.9743 25.1131 76.0573 23.3251 73.7053 23.3251ZM73.7053 30.1561C72.4163 30.1561 71.3043 29.0931 71.3043 27.5781C71.3043 26.0471 72.4163 25.0001 73.7053 25.0001C74.9943 25.0001 76.1053 26.0471 76.1053 27.5781C76.1053 29.0921 74.9943 30.1561 73.7053 30.1561ZM64.3913 23.3251C62.0393 23.3251 60.1223 25.1131 60.1223 27.5781C60.1223 30.0271 62.0393 31.8311 64.3913 31.8311C66.7433 31.8311 68.6603 30.0271 68.6603 27.5781C68.6613 25.1131 66.7433 23.3251 64.3913 23.3251ZM64.3913 30.1561C63.1023 30.1561 61.9913 29.0931 61.9913 27.5781C61.9913 26.0471 63.1033 25.0001 64.3913 25.0001C65.6803 25.0001 66.7913 26.0471 66.7913 27.5781C66.7923 29.0921 65.6803 30.1561 64.3913 30.1561ZM53.3133 24.6301V26.4341H57.6313C57.5023 27.4491 57.1643 28.1901 56.6483 28.7061C56.0203 29.3341 55.0373 30.0271 53.3133 30.0271C50.6553 30.0271 48.5773 27.8841 48.5773 25.2261C48.5773 22.5681 50.6553 20.4251 53.3133 20.4251C54.7473 20.4251 55.7943 20.9891 56.5673 21.7141L57.8403 20.4411C56.7613 19.4101 55.3273 18.6201 53.3133 18.6201C49.6723 18.6201 46.6113 21.5841 46.6113 25.2251C46.6113 28.8661 49.6723 31.8301 53.3133 31.8301C55.2783 31.8301 56.7613 31.1861 57.9213 29.9771C59.1133 28.7851 59.4843 27.1091 59.4843 25.7561C59.4843 25.3371 59.4523 24.9501 59.3873 24.6281H53.3133V24.6301ZM98.6213 26.0311C98.2673 25.0801 97.1873 23.3241 94.9803 23.3241C92.7893 23.3241 90.9693 25.0481 90.9693 27.5771C90.9693 29.9611 92.7733 31.8301 95.1903 31.8301C97.1393 31.8301 98.2673 30.6381 98.7343 29.9451L97.2843 28.9781C96.8013 29.6871 96.1403 30.1541 95.1903 30.1541C94.2393 30.1541 93.5633 29.7191 93.1283 28.8651L98.8153 26.5131L98.6213 26.0311ZM92.8213 27.4491C92.7733 25.8061 94.0943 24.9681 95.0443 24.9681C95.7853 24.9681 96.4133 25.3381 96.6233 25.8701L92.8213 27.4491ZM88.1973 31.5731H90.0663V19.0721H88.1973V31.5731ZM85.1363 24.2751H85.0723C84.6533 23.7761 83.8483 23.3241 82.8333 23.3241C80.7063 23.3241 78.7573 25.1931 78.7573 27.5931C78.7573 29.9771 80.7063 31.8301 82.8333 31.8301C83.8483 31.8301 84.6533 31.3791 85.0723 30.8631H85.1363V31.4751C85.1363 33.1021 84.2663 33.9721 82.8643 33.9721C81.7203 33.9721 81.0113 33.1501 80.7213 32.4581L79.0943 33.1351C79.5613 34.2631 80.8023 35.6481 82.8643 35.6481C85.0553 35.6481 86.9083 34.3591 86.9083 31.2181V23.5821H85.1363V24.2751ZM82.9943 30.1561C81.7053 30.1561 80.6263 29.0771 80.6263 27.5941C80.6263 26.0961 81.7053 25.0001 82.9943 25.0001C84.2673 25.0001 85.2653 26.0951 85.2653 27.5941C85.2653 29.0761 84.2673 30.1561 82.9943 30.1561ZM107.375 19.0721H102.904V31.5731H104.769V26.8371H107.374C109.442 26.8371 111.475 25.3401 111.475 22.9551C111.475 20.5701 109.443 19.0721 107.375 19.0721ZM107.423 25.0971H104.769V20.8121H107.423C108.818 20.8121 109.61 21.9671 109.61 22.9551C109.61 23.9231 108.818 25.0971 107.423 25.0971ZM118.955 23.3021C117.604 23.3021 116.205 23.8971 115.626 25.2161L117.283 25.9081C117.637 25.2161 118.296 24.9911 118.988 24.9911C119.953 24.9911 120.934 25.5701 120.95 26.5991V26.7281C120.612 26.5351 119.888 26.2451 119.004 26.2451C117.219 26.2451 115.401 27.2261 115.401 29.0601C115.401 30.7331 116.865 31.8101 118.505 31.8101C119.76 31.8101 120.451 31.2471 120.885 30.5881H120.949V31.5531H122.75V26.7601C122.75 24.5401 121.094 23.3021 118.955 23.3021ZM118.729 30.1531C118.118 30.1531 117.265 29.8471 117.265 29.0921C117.265 28.1271 118.327 27.7571 119.243 27.7571C120.063 27.7571 120.449 27.9341 120.948 28.1751C120.804 29.3331 119.807 30.1531 118.729 30.1531ZM129.312 23.5751L127.173 28.9951H127.109L124.89 23.5751H122.88L126.209 31.1501L124.311 35.3641H126.257L131.388 23.5751H129.312ZM112.505 31.5731H114.371V19.0721H112.505V31.5731Z" fill="white"/>
</svg>

<svg width="147" height="44" fill="none" xmlns="http://www.w3.org/2000/svg"><rect x=".5" y=".352" width="146" height="43.296" rx="8" fill="#000"/><path d="M26.356 21.284l-10.647 11.3.002.006a2.873 2.873 0 004.236 1.735l.034-.02 11.984-6.915-5.609-6.106z" fill="#EB4335"/><path d="M37.127 19.36l-.01-.006-5.174-3-5.829 5.187 5.85 5.848 5.146-2.97a2.876 2.876 0 00.017-5.059z" fill="#FABC13"/><path d="M15.71 11.137a2.818 2.818 0 00-.099.74v19.967c0 .257.033.505.098.74l11.013-11.011L15.71 11.137z" fill="#547DBF"/><path d="M26.434 21.86l5.511-5.509-11.971-6.94a2.878 2.878 0 00-4.265 1.723v.003L26.434 21.86z" fill="#30A851"/><path d="M52.636 11.277h-2.908v.721h2.18c-.06.586-.295 1.047-.688 1.382-.394.335-.897.503-1.492.503a2.253 2.253 0 01-1.659-.679c-.444-.46-.67-1.03-.67-1.718 0-.687.226-1.257.67-1.718a2.256 2.256 0 011.66-.678c.334 0 .653.058.946.184.293.126.528.302.712.528l.553-.553a2.503 2.503 0 00-.963-.662 3.284 3.284 0 00-1.249-.235c-.872 0-1.609.302-2.212.905-.604.604-.905 1.35-.905 2.23 0 .88.301 1.625.905 2.228.603.604 1.34.905 2.212.905.913 0 1.642-.293 2.204-.888.494-.494.746-1.165.746-2.003 0-.142-.017-.293-.042-.452zm1.148-2.791v6h3.503v-.737h-2.732v-1.902h2.463v-.72h-2.463V9.223h2.732v-.738h-3.503zm8.429.738v-.738H58.09v.738h1.676v5.262h.771V9.224h1.676zm3.755-.738h-.77v6h.77v-6zm5.095.738v-.738H66.94v.738h1.676v5.262h.771V9.224h1.676zm7.802.042c-.595-.612-1.324-.914-2.196-.914-.87 0-1.6.302-2.196.905-.595.595-.888 1.341-.888 2.23 0 .888.293 1.633.888 2.228.595.604 1.325.905 2.196.905.863 0 1.601-.3 2.196-.905.595-.595.888-1.34.888-2.229 0-.88-.293-1.625-.888-2.22zm-3.838.502c.444-.452.988-.678 1.642-.678.654 0 1.198.226 1.634.678.444.445.662 1.023.662 1.718 0 .696-.218 1.274-.662 1.718-.436.453-.98.68-1.634.68-.654 0-1.198-.227-1.642-.68-.436-.452-.654-1.022-.654-1.718 0-.695.218-1.265.654-1.718zm6.578.982l-.033-1.158h.033l3.051 4.894h.804v-6h-.77v3.512l.033 1.156h-.034l-2.916-4.668h-.938v6h.77V10.75zm-7.9 12.575c-2.352 0-4.269 1.788-4.269 4.253 0 2.45 1.917 4.253 4.27 4.253 2.351 0 4.268-1.804 4.268-4.253 0-2.465-1.917-4.253-4.269-4.253zm0 6.831c-1.289 0-2.4-1.063-2.4-2.578 0-1.53 1.111-2.578 2.4-2.578 1.29 0 2.4 1.047 2.4 2.578 0 1.514-1.11 2.578-2.4 2.578zm-9.314-6.83c-2.352 0-4.269 1.787-4.269 4.252 0 2.45 1.917 4.253 4.27 4.253 2.351 0 4.268-1.804 4.268-4.253.001-2.465-1.917-4.253-4.269-4.253zm0 6.83c-1.289 0-2.4-1.063-2.4-2.578 0-1.53 1.112-2.578 2.4-2.578 1.29 0 2.4 1.047 2.4 2.578.001 1.514-1.11 2.578-2.4 2.578zM53.313 24.63v1.804h4.318c-.129 1.015-.467 1.756-.983 2.272-.628.628-1.61 1.321-3.335 1.321-2.658 0-4.736-2.143-4.736-4.8 0-2.659 2.078-4.802 4.736-4.802 1.434 0 2.481.564 3.254 1.29l1.273-1.274c-1.079-1.03-2.513-1.82-4.527-1.82-3.64 0-6.702 2.963-6.702 6.604s3.061 6.605 6.702 6.605c1.965 0 3.448-.644 4.608-1.853 1.192-1.192 1.563-2.868 1.563-4.22a5.84 5.84 0 00-.097-1.129h-6.074v.002zm45.308 1.401c-.354-.95-1.434-2.707-3.64-2.707-2.192 0-4.012 1.724-4.012 4.253 0 2.384 1.804 4.253 4.221 4.253 1.95 0 3.077-1.192 3.544-1.885l-1.45-.967c-.483.71-1.144 1.176-2.094 1.176s-1.627-.435-2.062-1.289l5.687-2.352-.194-.482zm-5.8 1.418c-.048-1.643 1.273-2.48 2.223-2.48.741 0 1.37.37 1.58.901l-3.803 1.58zm-4.624 4.124h1.87v-12.5h-1.87v12.5zm-3.06-7.298h-.065c-.419-.499-1.224-.95-2.239-.95-2.127 0-4.076 1.868-4.076 4.268 0 2.384 1.95 4.237 4.076 4.237 1.015 0 1.82-.45 2.24-.967h.063v.612c0 1.627-.87 2.497-2.272 2.497-1.144 0-1.853-.822-2.143-1.514l-1.627.677c.467 1.128 1.708 2.513 3.77 2.513 2.191 0 4.044-1.289 4.044-4.43v-7.636h-1.772v.693zm-2.143 5.881c-1.289 0-2.368-1.079-2.368-2.562 0-1.498 1.08-2.594 2.368-2.594 1.273 0 2.271 1.095 2.271 2.594 0 1.482-.998 2.562-2.27 2.562zm24.381-11.084h-4.471v12.501h1.865v-4.736h2.605c2.068 0 4.101-1.497 4.101-3.882s-2.032-3.883-4.1-3.883zm.048 6.025h-2.654v-4.285h2.654c1.395 0 2.187 1.155 2.187 2.143 0 .968-.792 2.142-2.187 2.142zm11.532-1.795c-1.351 0-2.75.595-3.329 1.914l1.657.692c.354-.692 1.013-.917 1.705-.917.965 0 1.946.58 1.962 1.608v.13c-.338-.194-1.062-.484-1.946-.484-1.785 0-3.603.981-3.603 2.815 0 1.673 1.464 2.75 3.104 2.75 1.255 0 1.946-.563 2.38-1.222h.064v.965h1.801V26.76c0-2.22-1.656-3.458-3.795-3.458zm-.226 6.851c-.611 0-1.464-.306-1.464-1.06 0-.966 1.062-1.336 1.978-1.336.82 0 1.206.177 1.705.418a2.26 2.26 0 01-2.219 1.978zm10.583-6.578l-2.139 5.42h-.064l-2.219-5.42h-2.01l3.329 7.575-1.898 4.214h1.946l5.131-11.789h-2.076zm-16.807 7.998h1.866v-12.5h-1.866v12.5z" fill="#fff"/></svg>
